public/images/icons/android-list.svg

<?xml version="1.0" encoding="utf-8"?>
<!-- Generator: Adobe Illustrator 18.0.0, SVG Export Plug-In . SVG Version: 6.00 Build 0)  -->
<!DOCTYPE svg PUBLIC "-//W3C//DTD SVG 1.1//EN" "http://www.w3.org/Graphics/SVG/1.1/DTD/svg11.dtd">
<svg version="1.1" id="Layer_1" xmlns="http://www.w3.org/2000/svg" xmlns:xlink="http://www.w3.org/1999/xlink" x="0px" y="0px"
	 viewBox="0 0 512 512" enable-background="new 0 0 512 512" xml:space="preserve">
<g>
	<path fill="#FFFFFF" d="m458.7 0h-405.4c-29.4 0-53.3 23.9-53.3 53.3v405.3c0 29.5 23.9 53.4 53.3 53.4h405.3c29.5 0 53.3-23.9 53.3-53.3v-405.4c0.1-29.4-23.8-53.3-53.2-53.3zm-138.7 405.3h-213.3v-64h213.3zm85.3-117.3h-298.6v-64h298.7v64zm0-117.3h-298.6v-64h298.7v64z" />
</g>
</svg>

<?xml version="1.0" encoding="utf-8"?>
<!-- Generator: Adobe Illustrator 18.0.0, SVG Export Plug-In . SVG Version: 6.00 Build 0)  -->
<!DOCTYPE svg PUBLIC "-//W3C//DTD SVG 1.1//EN" "http://www.w3.org/Graphics/SVG/1.1/DTD/svg11.dtd">
<svg version="1.1" id="Layer_1" xmlns="http://www.w3.org/2000/svg" xmlns:xlink="http://www.w3.org/1999/xlink" x="0px" y="0px"
	 viewBox="0 0 512 512" enable-background="new 0 0 512 512" xml:space="preserve">
<g>
	<path fill="#FFFFFF" d="M458.7,0H53.3C23.9,0,0,23.9,0,53.3v405.3C0,488.1,23.9,512,53.3,512h405.3c29.5,0,53.3-23.9,53.3-53.3
		V53.3C512,23.9,488.1,0,458.7,0z M320,405.3H106.7v-64H320V405.3z M405.3,288H106.7v-64h298.7V288z M405.3,170.7H106.7v-64h298.7
		V170.7z"/>
</g>
</svg>
